Catalina-light/actions/22/edit-clone-unlink.svg

<svg viewBox="0 0 22 22" xmlns="http://www.w3.org/2000/svg">
<defs>
<style id="current-color-scheme" type="text/css">.ColorScheme-Text {
        color:#4d4d4d
      }</style>
</defs>
<path class="ColorScheme-Text" d="m8 3c-0.552 0-1 0.448-1 1v1h1v-0.5c0-0.276 0.224-0.5 0.5-0.5h9c0.276 0 0.5 0.224 0.5 0.5v9c0 0.276-0.224 0.5-0.5 0.5h-0.5v1h1c0.552 0 1-0.448 1-1v-10c0-0.552-0.448-1-1-1h-10zm-4 3c-0.552 0-1 0.448-1 1v11c0 0.552 0.448 1 1 1h11c0.552 0 1-0.448 1-1v-11c0-0.552-0.448-1-1-1h-11zm5.3438 2.5723c1.1004 0 2.0689 0.74004 2.3574 1.8008 0.0616 0.2266-0.0722 0.45987-0.29883 0.52148-0.2266 0.0616-0.45987-0.0723-0.52148-0.29883-0.18806-0.69144-0.81945-1.1738-1.5371-1.1738-0.87893 0-1.5938 0.71482-1.5938 1.5938v0.98437h3.9492c0.23444 0 0.42578 0.19132 0.42578 0.42578v3.7207c0 0.23445-0.19134 0.42579-0.42578 0.42579h-4.7129c-0.23445 0-0.42578-0.19134-0.42578-0.42579v-3.7207c0-0.20449 0.14526-0.37558 0.33789-0.41601v-0.99414c0-1.3478 1.0975-2.4434 2.4453-2.4434z" fill="currentColor"/>
</svg>

<svg xmlns="http://www.w3.org/2000/svg" viewBox="0 0 22 22">
  <defs id="defs3051">
    <style type="text/css" id="current-color-scheme">
      .ColorScheme-Text {
        color:#4d4d4d
      }
      </style>
  </defs>
 <path 
     style="fill:currentColor;fill-opacity:1;stroke:none"      
        d="M 8,3 C 7.448,3 7,3.448 7,4 L 7,5 8,5 8,4.5 C 8,4.224 8.224,4 8.5,4 l 9,0 C 17.776,4 18,4.224 18,4.5 l 0,9 c 0,0.276 -0.224,0.5 -0.5,0.5 l -0.5,0 0,1 1,0 c 0.552,0 1,-0.448 1,-1 L 19,4 C 19,3.448 18.552,3 18,3 L 8,3 Z M 4,6 C 3.448,6 3,6.448 3,7 l 0,11 c 0,0.552 0.448,1 1,1 l 11,0 c 0.552,0 1,-0.448 1,-1 L 16,7 C 16,6.448 15.552,6 15,6 L 4,6 Z m 5.34375,2.57227 c 1.10036,0 2.06894,0.74004 2.35742,1.80078 0.0616,0.2266 -0.0722,0.45987 -0.29883,0.52148 -0.2266,0.0616 -0.45987,-0.0723 -0.52148,-0.29883 C 10.6928,9.90426 10.06141,9.42188 9.34375,9.42188 8.46482,9.42188 7.75,10.1367 7.75,11.01563 l 0,0.98437 3.94922,0 c 0.23444,0 0.42578,0.19132 0.42578,0.42578 l 0,3.7207 c 0,0.23445 -0.19134,0.42579 -0.42578,0.42579 l -4.71289,0 c -0.23445,0 -0.42578,-0.19134 -0.42578,-0.42579 l 0,-3.7207 c 0,-0.20449 0.14526,-0.37558 0.33789,-0.41601 l 0,-0.99414 c 0,-1.3478 1.09749,-2.44336 2.44531,-2.44336 z"
	 class="ColorScheme-Text"
     />
</svg>
